static/img/kroki/fd8bbbfd0b4d93576c98eb913a5390d0.svg

<?xml version="1.0" encoding="us-ascii" standalone="no"?><svg xmlns="http://www.w3.org/2000/svg" xmlns:xlink="http://www.w3.org/1999/xlink" contentStyleType="text/css" height="374px" preserveAspectRatio="none" style="width:368px;height:374px;" version="1.1" viewBox="0 0 368 374" width="368px" zoomAndPan="magnify"><defs/><g><!--class aws_cloudfront_origin_access_control--><g id="elem_aws_cloudfront_origin_access_control"><rect codeLine="23" fill="#3D176E" height="39.7891" id="aws_cloudfront_origin_access_control" rx="2.5" ry="2.5" style="stroke:#000D19;stroke-width:0.5;" width="354" x="7" y="328.58"/><ellipse cx="22" cy="348.4745" fill="#ADD1B2" rx="11" ry="11" style="stroke:#181818;stroke-width:1.0;"/><path d="M24.9688,354.1152 Q24.3906,354.412 23.75,354.5527 Q23.1094,354.7089 22.4063,354.7089 Q19.9063,354.7089 18.5781,353.0683 Q17.2656,351.412 17.2656,348.287 Q17.2656,345.162 18.5781,343.5058 Q19.9063,341.8495 22.4063,341.8495 Q23.1094,341.8495 23.75,342.0058 Q24.4063,342.162 24.9688,342.4589 L24.9688,345.1777 Q24.3438,344.5995 23.75,344.3339 Q23.1563,344.0527 22.5313,344.0527 Q21.1875,344.0527 20.5,345.1308 Q19.8125,346.1933 19.8125,348.287 Q19.8125,350.3808 20.5,351.4589 Q21.1875,352.5214 22.5313,352.5214 Q23.1563,352.5214 23.75,352.2558 Q24.3438,351.9745 24.9688,351.3964 L24.9688,354.1152 Z " fill="#000000"/><text fill="#D9B8FF" font-family="Helvetica" font-size="17" lengthAdjust="spacing" textLength="312" x="41" y="354.3598">aws_cloudfront_origin_access_control</text></g><!--class aws_resource--><g id="elem_aws_resource"><rect codeLine="26" fill="#3D176E" height="39.7891" id="aws_resource" rx="2.5" ry="2.5" style="stroke:#000D19;stroke-width:0.5;" width="155" x="106.5" y="167.79"/><ellipse cx="121.5" cy="187.6845" fill="#ADD1B2" rx="11" ry="11" style="stroke:#181818;stroke-width:1.0;"/><path d="M124.4688,193.3252 Q123.8906,193.622 123.25,193.7627 Q122.6094,193.9189 121.9063,193.9189 Q119.4063,193.9189 118.0781,192.2783 Q116.7656,190.622 116.7656,187.497 Q116.7656,184.372 118.0781,182.7158 Q119.4063,181.0595 121.9063,181.0595 Q122.6094,181.0595 123.25,181.2158 Q123.9063,181.372 124.4688,181.6689 L124.4688,184.3877 Q123.8438,183.8095 123.25,183.5439 Q122.6563,183.2627 122.0313,183.2627 Q120.6875,183.2627 120,184.3408 Q119.3125,185.4033 119.3125,187.497 Q119.3125,189.5908 120,190.6689 Q120.6875,191.7314 122.0313,191.7314 Q122.6563,191.7314 123.25,191.4658 Q123.8438,191.1845 124.4688,190.6064 L124.4688,193.3252 Z " fill="#000000"/><text fill="#D9B8FF" font-family="Helvetica" font-size="17" lengthAdjust="spacing" textLength="113" x="140.5" y="193.5698">aws_resource</text></g><!--class resource--><g id="elem_resource"><rect codeLine="29" fill="#3D176E" height="39.7891" id="resource" rx="2.5" ry="2.5" style="stroke:#000D19;stroke-width:0.5;" width="113" x="127.5" y="7"/><ellipse cx="142.5" cy="26.8945" fill="#ADD1B2" rx="11" ry="11" style="stroke:#181818;stroke-width:1.0;"/><path d="M145.4688,32.5352 Q144.8906,32.832 144.25,32.9727 Q143.6094,33.1289 142.9063,33.1289 Q140.4063,33.1289 139.0781,31.4883 Q137.7656,29.832 137.7656,26.707 Q137.7656,23.582 139.0781,21.9258 Q140.4063,20.2695 142.9063,20.2695 Q143.6094,20.2695 144.25,20.4258 Q144.9063,20.582 145.4688,20.8789 L145.4688,23.5977 Q144.8438,23.0195 144.25,22.7539 Q143.6563,22.4727 143.0313,22.4727 Q141.6875,22.4727 141,23.5508 Q140.3125,24.6133 140.3125,26.707 Q140.3125,28.8008 141,29.8789 Q141.6875,30.9414 143.0313,30.9414 Q143.6563,30.9414 144.25,30.6758 Q144.8438,30.3945 145.4688,29.8164 L145.4688,32.5352 Z " fill="#000000"/><text fill="#D9B8FF" font-family="Helvetica" font-size="17" lengthAdjust="spacing" textLength="71" x="161.5" y="32.7798">resource</text></g><!--reverse link aws_resource to aws_cloudfront_origin_access_control--><g id="link_aws_resource_aws_cloudfront_origin_access_control"><path codeLine="32" d="M184,225.84 C184,256.36 184,297.69 184,328.25 " fill="none" id="aws_resource-backto-aws_cloudfront_origin_access_control" style="stroke:#FFAF37;stroke-width:2.0;"/><polygon fill="none" points="184,207.84,178,225.84,190,225.84,184,207.84" style="stroke:#FFAF37;stroke-width:2.0;"/></g><!--reverse link resource to aws_resource--><g id="link_resource_aws_resource"><path codeLine="33" d="M184,65.05 C184,95.57 184,136.9 184,167.46 " fill="none" id="resource-backto-aws_resource" style="stroke:#FFAF37;stroke-width:2.0;"/><polygon fill="none" points="184,47.05,178,65.05,190,65.05,184,47.05" style="stroke:#FFAF37;stroke-width:2.0;"/></g><!--SRC=[ZP9BRy8m48Jl-HMME2E5eZP4wWMGglQ2gj9xjDZhO95uexNJY3x-UqCfbKbuz3hpUNTcvRLHAB2i_5QKMAwGNUGsnbR0K8efCpLpAeZ5G6lGuwHhFf3rLu45b2WUiNX3RoHqYTUraHkBpecRm9g1tEHCjLNxyPx1kjP2wmDgNe1pK-_Ph6gFGHYLhYPQTydkqC5OZP8xx6742laNYUDOZT8kSdNLnTv_nDAyenY5HrkGnrxCteeVwcBA7H64x1Kz-6SpFeDInkRYDj1UzfdO8X_fopKeQdQqXiA5Qvn7HlBR2kUzLfXEb4vEma_du4ZkJYUWSPaig5QQsmuPiScDpK3AzXjbifMO2l4HHLy1p-YePecXVgmTKVUVm-7mNukY4syEKlGD]--></g></svg>

<svg xmlns="http://www.w3.org/2000/svg" width="368" height="374" viewBox="0 0 368 374"><rect width="354" height="39.789" x="7" y="328.58" fill="#3D176E" rx="2.5" ry="2.5" style="stroke:#000d19;stroke-width:.5"/><circle cx="22" cy="348.474" r="11" fill="#ADD1B2" style="stroke:#181818;stroke-width:1"/><path d="M24.969 354.115q-.578.297-1.219.438-.64.156-1.344.156-2.5 0-3.828-1.64-1.312-1.657-1.312-4.782t1.312-4.781q1.328-1.656 3.828-1.656.703 0 1.344.156.656.156 1.219.453v2.719q-.625-.579-1.219-.844-.594-.281-1.219-.281-1.343 0-2.031 1.078-.687 1.062-.687 3.156t.687 3.172q.688 1.062 2.031 1.062.625 0 1.219-.265.594-.281 1.219-.86z"/><text x="41" y="354.36" fill="#D9B8FF" font-family="Helvetica" font-size="17" textLength="312">aws_cloudfront_origin_access_control</text><rect width="155" height="39.789" x="106.5" y="167.79" fill="#3D176E" rx="2.5" ry="2.5" style="stroke:#000d19;stroke-width:.5"/><circle cx="121.5" cy="187.685" r="11" fill="#ADD1B2" style="stroke:#181818;stroke-width:1"/><path d="M124.469 193.325q-.578.297-1.219.438-.64.156-1.344.156-2.5 0-3.828-1.64-1.312-1.657-1.312-4.782t1.312-4.781q1.328-1.656 3.828-1.656.703 0 1.344.156.656.156 1.219.453v2.719q-.625-.578-1.219-.844-.594-.281-1.219-.281-1.344 0-2.031 1.078-.687 1.062-.687 3.156t.687 3.172q.688 1.062 2.031 1.062.625 0 1.219-.265.594-.281 1.219-.86z"/><text x="140.5" y="193.57" fill="#D9B8FF" font-family="Helvetica" font-size="17" textLength="113">aws_resource</text><rect width="113" height="39.789" x="127.5" y="7" fill="#3D176E" rx="2.5" ry="2.5" style="stroke:#000d19;stroke-width:.5"/><circle cx="142.5" cy="26.895" r="11" fill="#ADD1B2" style="stroke:#181818;stroke-width:1"/><path d="M145.469 32.535q-.578.297-1.219.438-.64.156-1.344.156-2.5 0-3.828-1.64-1.312-1.657-1.312-4.782t1.312-4.781q1.328-1.656 3.828-1.656.703 0 1.344.156.656.156 1.219.453v2.719q-.625-.578-1.219-.844-.594-.281-1.219-.281-1.344 0-2.031 1.078-.687 1.062-.687 3.156t.687 3.172q.688 1.062 2.031 1.062.625 0 1.219-.265.594-.281 1.219-.86z"/><text x="161.5" y="32.78" fill="#D9B8FF" font-family="Helvetica" font-size="17" textLength="71">resource</text><path fill="none" d="M184 225.84v102.41m0-120.41-6 18h12zm0-142.79v102.41m0-120.41-6 18h12z" style="stroke:#ffaf37;stroke-width:2"/></svg>
